src/assets/icons/location.svg

<?xml version="1.0" encoding="UTF-8"?>
<svg width="16px" height="18px" viewBox="0 0 16 18" version="1.1" xmlns="http://www.w3.org/2000/svg" xmlns:xlink="http://www.w3.org/1999/xlink">
    <!-- Generator: Sketch 41 (35326) - http://www.bohemiancoding.com/sketch -->
    <title>Location</title>
    <desc>Created with Sketch.</desc>
    <defs></defs>
    <g id="Styleguide" stroke="none" stroke-width="1" fill="none" fill-rule="evenodd">
        <g id="ICONS" transform="translate(-81.000000, -220.000000)" fill="#B0BEC5">
            <path d="M95.9277577,227.975906 C95.9277577,228.208076 95.915963,228.443631 95.8923737,228.676156 L95.8898718,228.702349 L95.8884421,228.728542 C95.8251798,229.967433 95.2751195,231.901407 93.0130456,234.080023 C91.6543359,235.388761 90.1737479,236.313341 89.32757,236.751131 L89.0117947,236.90597 C88.346647,236.585245 86.6959299,235.648548 85.1667337,234.232011 C82.7620516,232.004217 82.1783943,230.013938 82.112094,228.73656 L82.1108431,228.710011 L82.1079837,228.68364 C82.0842157,228.450223 82.0722423,228.211996 82.0722423,227.975906 C82.0722423,224.16747 85.1801367,221.069085 89,221.069085 C92.820042,221.069085 95.9277577,224.16747 95.9277577,227.975906 M81,227.975906 C81,228.251373 81.0139392,228.523456 81.0412813,228.791618 C81.3020149,233.820235 87.280302,237.308302 88.7074566,237.944051 C88.8034222,237.980222 88.9079659,238 89.016441,238 C89.1409999,238 89.2199884,237.982895 89.3341822,237.934608 C89.373319,237.917502 89.4153152,237.898081 89.459992,237.877412 C89.4685699,237.873313 89.4766117,237.869572 89.4853684,237.865295 L89.4855471,237.865474 C91.1612831,237.088427 96.7121029,233.626018 96.9592548,228.783065 C96.9860608,228.517576 97,228.248344 97,227.975906 C97,223.570921 93.4181745,220 89,220 C84.5820042,220 81,223.570921 81,227.975906 Z M92.0167895,227.902834 C92.0167895,229.561519 90.663441,230.910882 89.0000357,230.910882 C87.3364518,230.910882 85.9831032,229.561519 85.9831032,227.902834 C85.9831032,226.244327 87.3364518,224.895143 89.0000357,224.895143 C90.663441,224.895143 92.0167895,226.244327 92.0167895,227.902834 Z M84.9108609,227.902834 C84.9108609,230.154505 86.7417147,231.979967 89.0000357,231.979967 C91.2583568,231.979967 93.0890319,230.154505 93.0890319,227.902834 C93.0890319,225.651342 91.2583568,223.826058 89.0000357,223.826058 C86.7417147,223.826058 84.9108609,225.651342 84.9108609,227.902834 Z" id="Location"></path>
        </g>
    </g>
</svg>

<svg width="16" height="18" viewBox="0 0 16 18" xmlns="http://www.w3.org/2000/svg"><g id="Styleguide" fill="none" fill-rule="evenodd"><g id="ICONS" transform="translate(-81 -220)" fill="#B0BEC5"><path d="M95.928 227.976c0 .232-.012.468-.036.7l-.002.026-.002.027c-.063 1.238-.613 3.172-2.875 5.351-1.359 1.309-2.84 2.233-3.685 2.671l-.316.155c-.665-.32-2.316-1.257-3.845-2.674-2.405-2.228-2.989-4.218-3.055-5.495l-.001-.027-.003-.026a7.016 7.016 0 0 1-.036-.708c0-3.809 3.108-6.907 6.928-6.907s6.928 3.098 6.928 6.907m-14.928 0c0 .275.014.547.041.816.261 5.028 6.24 8.516 7.666 9.152.096.036.201.056.31.056a.72.72 0 0 0 .317-.065c.04-.017.081-.037.126-.058.009-.004.017-.007.025-.012 1.676-.777 7.227-4.239 7.474-9.082.027-.265.041-.535.041-.807 0-4.405-3.582-7.976-8-7.976s-8 3.57-8 7.976zm11.017-.073A3.016 3.016 0 0 1 89 230.91a3.016 3.016 0 0 1-3.017-3.008A3.016 3.016 0 0 1 89 224.895a3.016 3.016 0 0 1 3.017 3.008zm-7.106 0A4.083 4.083 0 0 0 89 231.98a4.083 4.083 0 0 0 4.089-4.077A4.083 4.083 0 0 0 89 223.826a4.083 4.083 0 0 0-4.09 4.077z" id="Location"/></g></g></svg>
